X: 10541
M: C|
L: 1/8
K: D
uA/ |\
d<d (f>d) (g>e) f>d | B<B (e>d) (c>A) A>c |\
d<d (f>d) (g>e) f>d | (3Bcd (3efg (3fdA (3FAc |
d<d (f>d) (g>e) f>d | B<B (e>d) (c>A) A>c |\
d<d (f>d) (g>e) f>d | (3Bcd (3efg f<dd> |: uB |


